packages/core/src/svgs/kit.svg

<svg width="24" height="24" viewBox="0 0 24 24" fill="none" xmlns="http://www.w3.org/2000/svg">
<g clip-path="url(#clip0_31_12667)">
<path d="M0 0H24V24H0V0Z" fill="#6025E1"/>
<path fill-rule="evenodd" clip-rule="evenodd" d="M6.85718 6.6815V17.2286L10.3715 19.2858L18 15.6001V8.34007L10.7272 4.71436L6.85718 6.6815ZM6.99003 6.73293L10.2857 9.01721V19.1315L10.9715 15.5872L14.5715 13.9801V10.0372L6.99003 6.72864V6.73293Z" fill="white"/>
</g>
<defs>
<clipPath id="clip0_31_12667">
<rect width="24" height="24" fill="white"/>
</clipPath>
</defs>
</svg>

<svg xmlns="http://www.w3.org/2000/svg" width="24" height="24" fill="none" viewBox="0 0 24 24"><g clip-path="url(#a)"><path fill="#6025E1" d="M0 0h24v24H0z"/><path fill="#fff" fill-rule="evenodd" d="M6.857 6.682v10.547l3.514 2.057L18 15.6V8.34l-7.273-3.626zm.133.05 3.296 2.285v10.115l.686-3.545 3.6-1.607v-3.943L6.99 6.73z" clip-rule="evenodd"/></g><defs><clipPath id="a"><path fill="#fff" d="M0 0h24v24H0z"/></clipPath></defs></svg>
